X: 494
T:Ruilleadh Cailleach
R:reel
S:Chris Norman
Z:Hans Bracker
M:C
L:1/8
Q:1/4=160
N: Posted to the woodenflute mailing list March 2002
K:D
AB |ce/e/ ee ea ec |ec ec B2 AB |ce/e/ ee ea ec |ec ec A3 z|!
ce/e/ ee ea ec| ec ec B2 g2| a2 gf ea ec |ec ec A3 z|!
|:a2 gf df ec |d/d/d ec df ec |a2 gf df ec |dB ec A3 z:|

